!!!!SEGMENT: pl-sa--l-1643--043-001_anonim--adoro-te-supplex-latens-deitas-1ma-pars.krn
!!!cenid: 16xx:1398
!!!COM: Anonim
!!!COM-rismid: pe30004985
!!!CDT:
!!!CNT:
!!!OPR: Adoro te supplex, latens deitas
!!!OTL: 1ma Pars
!!!OMV: 001
!!!PDT:
!!!AGN: Sacred
!!!SMS-siglum: PL-SA
!!!SMS-shelfmark: L 1643
!!!SMS-shelfwork: 043-001 M
!!!SMS-variant:
!!!SMS-altvar:
!!!NIFC-rismid: 1001063146
!!!URL-scan: http://repozytorium.nifc.pl/skany/pl-sa-nut--l1643
!!!ONB-nifc: UWAGA: 8 ksiąg. Primi chori: 1mus Cantus (72-74), C 2dus (72-74), C 3tius (70-72), Bassus (67-69); Secondi chori: Primus Cantus (68-70), C 2dus (71-73), Altus (69-71), Bassus (69-71). UWAGA: metrum 2/2 i 3/2. Pliki dla osobnych 4 części. Nie dodawać pustych linii, chyba że w rękopisie pojawiają się dodatkowe oznaczenia dotyczące pełnej obsady (a 4, a 8 itp.)
!!!AIN: 8 empty
!!!key:
**kern	**text	**text	**kern	**text	**text	**kern	**text	**text	**kern	**text	**text	**kern	**text	**text	**kern	**text	**text	**kern	**text	**text	**kern	**text	**text
*part8	*part8	*part8	*part7	*part7	*part7	*part6	*part6	*part6	*part5	*part5	*part5	*part4	*part4	*part4	*part3	*part3	*part3	*part2	*part2	*part2	*part1	*part1	*part1
*staff8	*staff8	*staff8	*staff7	*staff7	*staff7	*staff6	*staff6	*staff6	*staff5	*staff5	*staff5	*staff4	*staff4	*staff4	*staff3	*staff3	*staff3	*staff2	*staff2	*staff2	*staff1	*staff1	*staff1
*Iempty	*	*	*Iempty	*	*	*Iempty	*	*	*Iempty	*	*	*Iempty	*	*	*Iempty	*	*	*Iempty	*	*	*Iempty	*	*
*I"Baſsus 2di Chori	*	*	*I"Altus secundi Chori.	*	*	*I"Cantus 2dus Secundi Chori.	*	*	*I"Primus Cantus 2di Chori	*	*	*I"Bassus Primi Chori.	*	*	*I"Cantus 3tius Primi Chori	*	*	*I"Cantus 2dus Primi Chori.	*	*	*I"1m(us) Cantus Primi Chori	*	*
*I'Coro 2 B	*	*	*I'Coro 2 A	*	*	*I'Coro 2 C 2	*	*	*I'Coro 2 C 1	*	*	*I'Coro 1 B	*	*	*I'Coro 1 C 3	*	*	*I'Coro 1 C 2	*	*	*I'Coro 1 C 1	*	*
*clefC3	*	*	*clefC2	*	*	*clefC1	*	*	*clefG2	*	*	*clefC3	*	*	*clefC2	*	*	*clefC1	*	*	*clefG2	*	*
*k[]	*	*	*k[]	*	*	*k[]	*	*	*k[]	*	*	*k[]	*	*	*k[]	*	*	*k[]	*	*	*k[]	*	*
*d:	*	*	*d:	*	*	*d:	*	*	*d:	*	*	*d:	*	*	*d:	*	*	*d:	*	*	*d:	*	*
*M2/2	*	*	*M2/2	*	*	*M2/2	*	*	*M2/2	*	*	*M2/2	*	*	*M2/2	*	*	*M2/2	*	*	*M2/2	*	*
*met(c|)	*	*	*met(c|)	*	*	*met(c|)	*	*	*met(c|)	*	*	*met(c|)	*	*	*met(c|)	*	*	*met(c|)	*	*	*met(c|)	*	*
=1-	=1-	=1-	=1-	=1-	=1-	=1-	=1-	=1-	=1-	=1-	=1-	=1-	=1-	=1-	=1-	=1-	=1-	=1-	=1-	=1-	=1-	=1-	=1-
!	!	!	!	!	!	!	!	!	!LO:TX:t=P:problem=po metrum przerywana kreska	!	!	!	!	!	!LO:TX:t=P:problem=po metrum dwie przerywane kreski	!	!	!LO:TX:t=P:problem=po metrum dwie przerywane kreski	!	!	!	!	!
!LO:TX:t=P:problem=po metrum przerywana kreska	!	!	!LO:TX:t=P:problem=po metrum przerywana kreska	!	!	!LO:TX:t=P:problem=po metrum przerywana kreska taktowa	!	!	!LO:TX:t=Oratio S\nThoma(s) A 8\nV.	!	!	!LO:TX:t=P:problem=po metrum dwie przerywane kreski	!	!	!LO:TX:t=Oratio S.\nThoma(s)\nA 8 V.	!	!	!LO:TX:t=Oratio\nS. Thoma(s)\nA 8 V.	!	!	!LO:TX:t=P:problem=po metrum dwie przerywane kreski	!	!
00r	.	.	00r	.	.	00r	.	.	00r	.	.	1.g	A-	Pla-	1.g	A-	Pla-	1.b-X	A-	Pla-	1dd	A-	Pla-
=2-	=2-	=2-	=2-	=2-	=2-	=2-	=2-	=2-	=2-	=2-	=2-	=2-	=2-	=2-	=2-	=2-	=2-	=2-	=2-	=2-	=2-	=2-	=2-
.	.	.	.	.	.	.	.	.	.	.	.	.	.	.	.	.	.	.	.	.	4dd\	-do-	-gas
.	.	.	.	.	.	.	.	.	.	.	.	.	.	.	.	.	.	.	.	.	4ee\	.	.
.	.	.	.	.	.	.	.	.	.	.	.	2f\	-do-	-gas	2a\	-do-	-gas	2a\	-do-	-gas	2ff\	.	.
=3-	=3-	=3-	=3-	=3-	=3-	=3-	=3-	=3-	=3-	=3-	=3-	=3-	=3-	=3-	=3-	=3-	=3-	=3-	=3-	=3-	=3-	=3-	=3-
!	!	!	!	!	!	!	!	!	!	!	!	!	!	!	!	!	!	!LO:TX:t=P:problem=niewyraźne źródło	!	!	!	!	!
.	.	.	.	.	.	.	.	.	.	.	.	1.e-X	-ro	si-	1.b-X	-ro	Si-	1.g	-ro	Si-	1.gg	-ro	Si-
=4-	=4-	=4-	=4-	=4-	=4-	=4-	=4-	=4-	=4-	=4-	=4-	=4-	=4-	=4-	=4-	=4-	=4-	=4-	=4-	=4-	=4-	=4-	=4-
.	.	.	.	.	.	.	.	.	.	.	.	.	.	.	.	.	.	.	.	.	.	.	.
.	.	.	.	.	.	.	.	.	.	.	.	2d\	te	-cut	2f\	te	-cut	4a\	te	-cut	2ff\	te	-cut
.	.	.	.	.	.	.	.	.	.	.	.	.	.	.	.	.	.	4bny\	.	.	.	.	.
=5-	=5-	=5-	=5-	=5-	=5-	=5-	=5-	=5-	=5-	=5-	=5-	=5-	=5-	=5-	=5-	=5-	=5-	=5-	=5-	=5-	=5-	=5-	=5-
1r	.	.	1r	.	.	1r	.	.	1r	.	.	1c	sup-	Tho-	1g	sup-	Tho-	2.cc\	sup-	Tho-	1ee-X	ſu-	Tho-
.	.	.	.	.	.	.	.	.	.	.	.	.	.	.	.	.	.	4b\	.	.	.	.	.
=6-	=6-	=6-	=6-	=6-	=6-	=6-	=6-	=6-	=6-	=6-	=6-	=6-	=6-	=6-	=6-	=6-	=6-	=6-	=6-	=6-	=6-	=6-	=6-
2r	.	.	2r	.	.	2r	.	.	2r	.	.	1d	-plex	-mas	1f	-plex	-mas	1a	-plex.	-mas	1dd	-plex	-mas
1d\	A-	Pla-	1f\	A-	Pla-	2.a\	A-	Pla-	1ff\	A-	Pla-	.	.	.	.	.	.	.	.	.	.	.	.
=7-	=7-	=7-	=7-	=7-	=7-	=7-	=7-	=7-	=7-	=7-	=7-	=7-	=7-	=7-	=7-	=7-	=7-	=7-	=7-	=7-	=7-	=7-	=7-
.	.	.	.	.	.	.	.	.	.	.	.	00r	.	.	00r	.	.	00r	.	.	00r	.	.
.	.	.	.	.	.	4b\	-do-	-gas	.	.	.	.	.	.	.	.	.	.	.	.	.	.	.
2c/	-do-	-gas	2g\	-do-	-gas	2cc\	.	.	2ee\	-do-	-gas	.	.	.	.	.	.	.	.	.	.	.	.
=8-	=8-	=8-	=8-	=8-	=8-	=8-	=8-	=8-	=8-	=8-	=8-	=8-	=8-	=8-	=8-	=8-	=8-	=8-	=8-	=8-	=8-	=8-	=8-
1.B-X	-ro	Si-	1.d	-ro	si-	1.dd	-ro	Si-	1.dd	-ro	si-	.	.	.	.	.	.	.	.	.	.	.	.
=9-	=9-	=9-	=9-	=9-	=9-	=9-	=9-	=9-	=9-	=9-	=9-	=9-	=9-	=9-	=9-	=9-	=9-	=9-	=9-	=9-	=9-	=9-	=9-
.	.	.	.	.	.	.	.	.	.	.	.	.	.	.	.	.	.	.	.	.	.	.	.
!	!	!	!	!	!	!LO:SIC:v:s=2cc#\	!	!	!LO:TX:t=P:problem=# below	!	!	!	!	!	!	!	!	!	!	!	!	!	!
2A/	te	-cut	4e/	te	-cut	2cc\	te	-cut	2cc#X\	te	-cut	.	.	.	.	.	.	.	.	.	.	.	.
.	.	.	4f\	.	.	.	.	.	.	.	.	.	.	.	.	.	.	.	.	.	.	.	.
=10-	=10-	=10-	=10-	=10-	=10-	=10-	=10-	=10-	=10-	=10-	=10-	=10-	=10-	=10-	=10-	=10-	=10-	=10-	=10-	=10-	=10-	=10-	=10-
1G	sup-	Tho-	2.g\	sup-	Tho-	1b-X	sup-	Tho-	1dd	ſup-	Tho-	.	.	.	.	.	.	.	.	.	.	.	.
.	.	.	4f\	.	.	.	.	.	.	.	.	.	.	.	.	.	.	.	.	.	.	.	.
=11-	=11-	=11-	=11-	=11-	=11-	=11-	=11-	=11-	=11-	=11-	=11-	=11-	=11-	=11-	=11-	=11-	=11-	=11-	=11-	=11-	=11-	=11-	=11-
!	!	!	!	!	!	!	!	!	!LO:TX:t=P:problem=# below	!	!	!	!	!	!	!	!	!	!	!	!	!	!
2A/	-plex	-mas	2e/	-plex.	-mas	2a\	-plex	-mas	2cc#X\	-plex.	-mas	2r	.	.	2r	.	.	2r	.	.	2r	.	.
2r	.	.	2r	.	.	2r	.	.	2r	.	.	1f\	a-	pla-	1cc\	a-	pla-	1ff\	a-	Pla-	1aa\	a-	pla-
=12-	=12-	=12-	=12-	=12-	=12-	=12-	=12-	=12-	=12-	=12-	=12-	=12-	=12-	=12-	=12-	=12-	=12-	=12-	=12-	=12-	=12-	=12-	=12-
00r	.	.	00r	.	.	00r	.	.	00r	.	.	.	.	.	.	.	.	.	.	.	.	.	.
*	*	*	*	*	*	*	*	*	*	*	*	*	*	*	*custos:a	*	*	*	*	*	*	*	*
.	.	.	.	.	.	.	.	.	.	.	.	2c/	-do-	-gas	2cc\	-do-	-gas	2ee\	-do-	-gas	2gg\	-do-	gas
=13-	=13-	=13-	=13-	=13-	=13-	=13-	=13-	=13-	=13-	=13-	=13-	=13-	=13-	=13-	=13-	=13-	=13-	=13-	=13-	=13-	=13-	=13-	=13-
!	!	!	!	!	!	!	!	!	!	!	!	!	!	!	!LO:LB:g=original	!	!	!	!	!	!	!	!
.	.	.	.	.	.	.	.	.	.	.	.	1.d	-ro	si-	1.a	-ro	si-	1.dd	-ro	Si-	1.ff	-ro	si-
=14-	=14-	=14-	=14-	=14-	=14-	=14-	=14-	=14-	=14-	=14-	=14-	=14-	=14-	=14-	=14-	=14-	=14-	=14-	=14-	=14-	=14-	=14-	=14-
.	.	.	.	.	.	.	.	.	.	.	.	.	.	.	.	.	.	.	.	.	.	.	.
!	!	!	!	!	!	!	!	!	!	!	!	!	!	!	!	!	!	!LO:TX:t=P:problem=# below	!	!	!	!	!
.	.	.	.	.	.	.	.	.	.	.	.	2A/	te	-cut	2a\	te	-cut	2cc#X\	te	-cut	2eeny\	te	-cut
=15-	=15-	=15-	=15-	=15-	=15-	=15-	=15-	=15-	=15-	=15-	=15-	=15-	=15-	=15-	=15-	=15-	=15-	=15-	=15-	=15-	=15-	=15-	=15-
.	.	.	.	.	.	.	.	.	.	.	.	1B-X	sup-	Tho-	2.f\	sup-	Tho-	1dd	sup-	Tho-	1dd	sup-	Tho-
.	.	.	.	.	.	.	.	.	.	.	.	.	.	.	4g\	.	.	.	.	.	.	.	.
=16-	=16-	=16-	=16-	=16-	=16-	=16-	=16-	=16-	=16-	=16-	=16-	=16-	=16-	=16-	=16-	=16-	=16-	=16-	=16-	=16-	=16-	=16-	=16-
!	!	!	!	!	!	!	!	!	!	!	!	!	!	!	!	!	!	!LO:TX:t=P:problem=# below	!	!	!	!	!
2r	.	.	2r	.	.	2r	.	.	2r	.	.	2A/	-plex	-mas	2a\	-plex	-mas	2cc#X\	-plex	-mas	2ee\	-plex.	-mas
2.A/	a-	pla-	1a\	a-	pla-	1cc\	a-	pla-	2.ccny\	a-	pla-	2r	.	.	2r	.	.	2r	.	.	2r	.	.
=17-	=17-	=17-	=17-	=17-	=17-	=17-	=17-	=17-	=17-	=17-	=17-	=17-	=17-	=17-	=17-	=17-	=17-	=17-	=17-	=17-	=17-	=17-	=17-
.	.	.	.	.	.	.	.	.	.	.	.	00r	.	.	00r	.	.	00r	.	.	00r	.	.
4Bny/	-do-	-gas	.	.	.	.	.	.	4dd\	.	.	.	.	.	.	.	.	.	.	.	.	.	.
2c/	-ro	Si-	2g\	-do-	-gas	2g/	-do-	-gas	2ee\	-do-	-gas	.	.	.	.	.	.	.	.	.	.	.	.
=18-	=18-	=18-	=18-	=18-	=18-	=18-	=18-	=18-	=18-	=18-	=18-	=18-	=18-	=18-	=18-	=18-	=18-	=18-	=18-	=18-	=18-	=18-	=18-
1.d	.	.	1.f	-ro	si-	1.dd	-ro	Si-	1.ff	-ro	si-	.	.	.	.	.	.	.	.	.	.	.	.
=19-	=19-	=19-	=19-	=19-	=19-	=19-	=19-	=19-	=19-	=19-	=19-	=19-	=19-	=19-	=19-	=19-	=19-	=19-	=19-	=19-	=19-	=19-	=19-
.	.	.	.	.	.	.	.	.	.	.	.	.	.	.	.	.	.	.	.	.	.	.	.
!	!	!	!	!	!	!LO:TX:t=P:problem=# below	!	!	!	!	!	!	!	!	!	!	!	!	!	!	!	!	!
2A/	te	-cut	2a\	te	-cut	2cc#X\	te	-cut	2ee\	te	-cut	.	.	.	.	.	.	.	.	.	.	.	.
=20-	=20-	=20-	=20-	=20-	=20-	=20-	=20-	=20-	=20-	=20-	=20-	=20-	=20-	=20-	=20-	=20-	=20-	=20-	=20-	=20-	=20-	=20-	=20-
1B-X	sup-	Tho-	2.f\	sup-	Tho-	1dd	sup-	Tho-	1dd	sup-	Tho-	.	.	.	.	.	.	.	.	.	.	.	.
.	.	.	4g\	.	.	.	.	.	.	.	.	.	.	.	.	.	.	.	.	.	.	.	.
=21-	=21-	=21-	=21-	=21-	=21-	=21-	=21-	=21-	=21-	=21-	=21-	=21-	=21-	=21-	=21-	=21-	=21-	=21-	=21-	=21-	=21-	=21-	=21-
!	!	!	!	!	!	!LO:TX:t=P:problem=# below	!	!	!	!	!	!	!	!	!	!	!	!	!	!	!	!	!
2A/	-plex	-mas	2a\	-plex	-mas	2cc#X\	-plex	-mas	2ee\	-plex	-mas	2r	.	.	2r	.	.	2r	.	.	2r	.	.
2r	.	.	2r	.	.	2r	.	.	2r	.	.	1d\	a-	pla-	1a\	a-	pla-	1dd\	a-	Pla-	1ff\	a-	pla-
=22-	=22-	=22-	=22-	=22-	=22-	=22-	=22-	=22-	=22-	=22-	=22-	=22-	=22-	=22-	=22-	=22-	=22-	=22-	=22-	=22-	=22-	=22-	=22-
1r	.	.	1r	.	.	00r	.	.	00r	.	.	.	.	.	.	.	.	.	.	.	.	.	.
.	.	.	.	.	.	.	.	.	.	.	.	2c/	-do-	-gas	2a\	-do-	-gas	2ee\	-do-	-gas	2ee\	-do-	-gas
=23-	=23-	=23-	=23-	=23-	=23-	=23-	=23-	=23-	=23-	=23-	=23-	=23-	=23-	=23-	=23-	=23-	=23-	=23-	=23-	=23-	=23-	=23-	=23-
00r	.	.	00r	.	.	.	.	.	.	.	.	1.d	-ro	si-	1.a	-ro	si-	1.dd	-ro	Si-	1.ff	-ro	si-
=24-	=24-	=24-	=24-	=24-	=24-	=24-	=24-	=24-	=24-	=24-	=24-	=24-	=24-	=24-	=24-	=24-	=24-	=24-	=24-	=24-	=24-	=24-	=24-
.	.	.	.	.	.	.	.	.	.	.	.	.	.	.	.	.	.	.	.	.	.	.	.
!	!	!	!	!	!	!	!	!	!	!	!	!	!	!	!	!	!	!LO:TX:t=P:problem=# below	!	!	!	!	!
.	.	.	.	.	.	.	.	.	.	.	.	2A/	te	-cut	2a\	te	-cut	2cc#X\	te	-cut	2ee\	te	-cut
=25-	=25-	=25-	=25-	=25-	=25-	=25-	=25-	=25-	=25-	=25-	=25-	=25-	=25-	=25-	=25-	=25-	=25-	=25-	=25-	=25-	=25-	=25-	=25-
.	.	.	.	.	.	.	.	.	.	.	.	2B-X/	sup-	Tho-	4f\	sup-	Tho-	2dd\	sup-	Tho-	2dd\	ſup-	Tho-
.	.	.	.	.	.	.	.	.	.	.	.	.	.	.	4g\	.	.	.	.	.	.	.	.
*	*	*	*	*	*	*	*	*	*	*	*	*	*	*	*	*	*	*custos:b-	*	*	*custos:dd	*	*
.	.	.	.	.	.	.	.	.	.	.	.	2A/	-plex	-mas	2a\	-plex	-mas	2a\	-plex	-mas	2cc\	-plex	-mas
=26-	=26-	=26-	=26-	=26-	=26-	=26-	=26-	=26-	=26-	=26-	=26-	=26-	=26-	=26-	=26-	=26-	=26-	=26-	=26-	=26-	=26-	=26-	=26-
!	!	!	!	!	!	!	!	!	!	!	!	!	!	!	!	!	!	!LO:LB:g=original	!	!	!LO:LB:g=original	!	!
.	.	.	.	.	.	0r	.	.	0r	.	.	2G/	la-	non	2d/	La-	non	2b-X\	la-	non	4dd\	la-	non
.	.	.	.	.	.	.	.	.	.	.	.	.	.	.	.	.	.	.	.	.	4ee\	.	.
*	*	*	*	*	*	*	*	*	*	*	*	*custos:B-	*	*	*	*	*	*	*	*	*	*	*
.	.	.	.	.	.	.	.	.	.	.	.	2F/	-tens	in-	2a\	-tens	in-	2a\	-tens	in-	2ff\	-tens	in-
=27-	=27-	=27-	=27-	=27-	=27-	=27-	=27-	=27-	=27-	=27-	=27-	=27-	=27-	=27-	=27-	=27-	=27-	=27-	=27-	=27-	=27-	=27-	=27-
!	!	!	!	!	!	!	!	!	!	!	!	!LO:LB:g=original	!	!	!	!	!	!	!	!	!	!	!
0r	.	.	0r	.	.	.	.	.	.	.	.	1.B-X	De-	-tu-	1.f	De-	-tu-	1.dd	De-	-tu-	1.dd	De-	-tu-
=28-	=28-	=28-	=28-	=28-	=28-	=28-	=28-	=28-	=28-	=28-	=28-	=28-	=28-	=28-	=28-	=28-	=28-	=28-	=28-	=28-	=28-	=28-	=28-
.	.	.	.	.	.	1r	.	.	1r	.	.	.	.	.	.	.	.	.	.	.	.	.	.
.	.	.	.	.	.	.	.	.	.	.	.	2B-yX/	-i-	-e-	2g\	-i-	-e-	2dd\	-i-	-e-	2dd\	-i-	-e-
=29-	=29-	=29-	=29-	=29-	=29-	=29-	=29-	=29-	=29-	=29-	=29-	=29-	=29-	=29-	=29-	=29-	=29-	=29-	=29-	=29-	=29-	=29-	=29-
!	!	!	!	!	!	!	!	!	!	!	!	!	!	!	!	!	!	!LO:TX:t=P:problem=# below	!	!	!	!	!
2r	.	.	2r	.	.	2r	.	.	2r	.	.	2A/	-tas.	-or	2a\	-tas	-or	2cc#X\	-tas	-or	2ee\	-tas	-or
1d\	La-	non	1a\	La-	non	1dd\	la-	non	1ff\	la-	non	2r	.	.	2r	.	.	2r	.	.	2r	.	.
=30-	=30-	=30-	=30-	=30-	=30-	=30-	=30-	=30-	=30-	=30-	=30-	=30-	=30-	=30-	=30-	=30-	=30-	=30-	=30-	=30-	=30-	=30-	=30-
.	.	.	.	.	.	.	.	.	.	.	.	0r	.	.	0r	.	.	0r	.	.	0r	.	.
*custos:B-	*	*	*	*	*	*	*	*	*custos:dd	*	*	*	*	*	*	*	*	*	*	*	*	*	*
!	!	!	!	!	!	!LO:TX:t=P:problem=# below	!	!	!	!	!	!	!	!	!	!	!	!	!	!	!	!	!
2A/	-tens.	in-	2a\	-tens	in-	2cc#X\	-tens	in-	2ee\	-tens	in-	.	.	.	.	.	.	.	.	.	.	.	.
=31-	=31-	=31-	=31-	=31-	=31-	=31-	=31-	=31-	=31-	=31-	=31-	=31-	=31-	=31-	=31-	=31-	=31-	=31-	=31-	=31-	=31-	=31-	=31-
!LO:LB:g=original	!	!	!	!	!	!	!	!	!LO:LB:g=original	!	!	!	!	!	!	!	!	!	!	!	!	!	!
2.B-X/	De-	-tu-	2.f\	De-	-tu-	2.dd\	De-	-tu-	2.dd\	De-	-tu-	.	.	.	.	.	.	.	.	.	.	.	.
4B-/	-i-	-e-	4g\	-i-	-e-	4dd\	-i-	-e-	4dd\	-i-	-e-	.	.	.	.	.	.	.	.	.	.	.	.
=32-	=32-	=32-	=32-	=32-	=32-	=32-	=32-	=32-	=32-	=32-	=32-	=32-	=32-	=32-	=32-	=32-	=32-	=32-	=32-	=32-	=32-	=32-	=32-
*	*	*	*custos:a	*	*	*	*	*	*	*	*	*	*	*	*	*	*	*	*	*	*	*	*
!	!	!	!	!	!	!LO:TX:t=P:problem=# below	!	!	!	!	!	!	!	!	!	!	!	!	!	!	!	!	!
2A/	-tas	-or	2a\	-tas	-or	2cc#X\	-tas.	-or.	2ee\	-tas	-or	2r	.	.	2r	.	.	2r	.	.	2r	.	.
*	*	*	*	*	*	*custos:dd	*	*	*	*	*	*	*	*	*	*	*	*	*	*	*	*	*
!	!	!	!LO:LB:g=original	!	!	!	!	!	!	!	!	!	!	!	!	!	!	!	!	!	!	!	!
2r	.	.	2r	.	.	2r	.	.	2r	.	.	2d\	Quae	De-	2f\	quae	De-	2a\	quae	De-	2dd\	quae	De-
=33-	=33-	=33-	=33-	=33-	=33-	=33-	=33-	=33-	=33-	=33-	=33-	=33-	=33-	=33-	=33-	=33-	=33-	=33-	=33-	=33-	=33-	=33-	=33-
!	!	!	!	!	!	!LO:LB:g=original	!	!	!	!	!	!	!	!	!	!	!	!	!	!	!	!	!
00r	.	.	00r	.	.	00r	.	.	00r	.	.	1d	sub	-um	1f	sub	-um	2.a\	sub	-um	1dd	ſub	-um
.	.	.	.	.	.	.	.	.	.	.	.	.	.	.	.	.	.	4bny\	.	.	.	.	.
=34-	=34-	=34-	=34-	=34-	=34-	=34-	=34-	=34-	=34-	=34-	=34-	=34-	=34-	=34-	=34-	=34-	=34-	=34-	=34-	=34-	=34-	=34-	=34-
.	.	.	.	.	.	.	.	.	.	.	.	2c/	his	ta-	2g\	his	ta-	2ccny\	his	ta-	2ee\	his	ta-
.	.	.	.	.	.	.	.	.	.	.	.	2A/	fi-	-men	2a\	fi-	-men	2cc\	fi-	-men	2ff\	fi-	-men
=35-	=35-	=35-	=35-	=35-	=35-	=35-	=35-	=35-	=35-	=35-	=35-	=35-	=35-	=35-	=35-	=35-	=35-	=35-	=35-	=35-	=35-	=35-	=35-
.	.	.	.	.	.	.	.	.	.	.	.	1G	-gu-	me-	1b-X	-gu-	me-	1dd	-gu-	me-	1gg	-gu-	me-
=36-	=36-	=36-	=36-	=36-	=36-	=36-	=36-	=36-	=36-	=36-	=36-	=36-	=36-	=36-	=36-	=36-	=36-	=36-	=36-	=36-	=36-	=36-	=36-
!	!	!	!	!	!	!	!	!	!	!	!	!	!	!	!	!	!	!LO:TX:t=P:problem=# below	!	!	!	!	!
.	.	.	.	.	.	.	.	.	.	.	.	2A/	-ris	-um	4a\	-ris	-um	2cc#X\	-ris	-um	4ff\	-ris	-um
.	.	.	.	.	.	.	.	.	.	.	.	.	.	.	4b-y\	.	.	.	.	.	4gg\	.	.
*	*	*	*	*	*	*	*	*	*	*	*	*	*	*	*custos:b-	*	*	*	*	*	*	*	*
.	.	.	.	.	.	.	.	.	.	.	.	2F/	ve-	te	2cc\	ve-	te	4ff\	ve-	te	2aa\	ve-	te
.	.	.	.	.	.	.	.	.	.	.	.	.	.	.	.	.	.	4ee\	.	.	.	.	.
=37-	=37-	=37-	=37-	=37-	=37-	=37-	=37-	=37-	=37-	=37-	=37-	=37-	=37-	=37-	=37-	=37-	=37-	=37-	=37-	=37-	=37-	=37-	=37-
!	!	!	!	!	!	!	!	!	!	!	!	!	!	!	!LO:LB:g=original	!	!	!	!	!	!	!	!
0r	.	.	0r	.	.	00r	.	.	0r	.	.	1G	-rè	con-	1b-X	-rè	con-	2dd\	-rè	.	2.gg\	-rè	con-
.	.	.	.	.	.	.	.	.	.	.	.	.	.	.	.	.	.	1dd\	la-	con-	.	.	.
.	.	.	.	.	.	.	.	.	.	.	.	.	.	.	.	.	.	.	.	.	4ff\	.	.
=38-	=38-	=38-	=38-	=38-	=38-	=38-	=38-	=38-	=38-	=38-	=38-	=38-	=38-	=38-	=38-	=38-	=38-	=38-	=38-	=38-	=38-	=38-	=38-
.	.	.	.	.	.	.	.	.	.	.	.	1.A	la-	-fi-	1.a	la-	-fi-	.	.	.	1.ee	la-	-fi-
.	.	.	.	.	.	.	.	.	.	.	.	.	.	.	.	.	.	4cc#y\	.	-fi-	.	.	.
.	.	.	.	.	.	.	.	.	.	.	.	.	.	.	.	.	.	4b\	.	.	.	.	.
=39-	=39-	=39-	=39-	=39-	=39-	=39-	=39-	=39-	=39-	=39-	=39-	=39-	=39-	=39-	=39-	=39-	=39-	=39-	=39-	=39-	=39-	=39-	=39-
!	!	!	!	!	!	!	!	!	!	!	!	!	!	!	!	!	!	!LO:TX:t=P:problem=# below	!	!	!	!	!
1r	.	.	1r	.	.	.	.	.	1r	.	.	.	.	.	.	.	.	1cc#X	-ti-	-te-	.	.	.
.	.	.	.	.	.	.	.	.	.	.	.	2A/	-ti-	-te-	2a\	-ti-	-te-	.	.	.	2ee\	-ti-	-te-
=40-	=40-	=40-	=40-	=40-	=40-	=40-	=40-	=40-	=40-	=40-	=40-	=40-	=40-	=40-	=40-	=40-	=40-	=40-	=40-	=40-	=40-	=40-	=40-
1ryy	.	.	1ryy	.	.	.	.	.	1ryy	.	.	1d	-tas	-or	1a	-tas	-or.	1dd	-tas	-or	1dd	-tas	-or
=41-	=41-	=41-	=41-	=41-	=41-	=41-	=41-	=41-	=41-	=41-	=41-	=41-	=41-	=41-	=41-	=41-	=41-	=41-	=41-	=41-	=41-	=41-	=41-
2r	.	.	2r	.	.	2r	.	.	2r	.	.	1ryy	.	.	1ryy	.	.	1ryy	.	.	1ryy	.	.
1d\	Ve-	te	1a\	Ve-	te	1dd\	Ve-	te	1ff\	Ve-	te	.	.	.	.	.	.	.	.	.	.	.	.
=42-	=42-	=42-	=42-	=42-	=42-	=42-	=42-	=42-	=42-	=42-	=42-	=42-	=42-	=42-	=42-	=42-	=42-	=42-	=42-	=42-	=42-	=42-	=42-
.	.	.	.	.	.	.	.	.	.	.	.	0r	.	.	0r	.	.	0r	.	.	0r	.	.
!	!	!	!	!	!	!LO:TX:t=P:problem=# below	!	!	!	!	!	!	!	!	!	!	!	!	!	!	!	!	!
2A/	-rè	con-	2a\	-rè	con-	2cc#X\	-rè	con-	2ee\	-rè	con-	.	.	.	.	.	.	.	.	.	.	.	.
=43-	=43-	=43-	=43-	=43-	=43-	=43-	=43-	=43-	=43-	=43-	=43-	=43-	=43-	=43-	=43-	=43-	=43-	=43-	=43-	=43-	=43-	=43-	=43-
2.B-X/	la-	-fi-	2.f\	la-	-fi-	2.dd\	la-	-fi-	2.dd\	la-	-fi-	.	.	.	.	.	.	.	.	.	.	.	.
4B-/	-ti-	-te-	4g\	-ti-	-te-	4dd\	-ti-	-te-	4dd\	-ti-	-te-	.	.	.	.	.	.	.	.	.	.	.	.
=44-	=44-	=44-	=44-	=44-	=44-	=44-	=44-	=44-	=44-	=44-	=44-	=44-	=44-	=44-	=44-	=44-	=44-	=44-	=44-	=44-	=44-	=44-	=44-
2A/	-tas	-or	2a\	-tas	-or	2ccny\	-tas	-or	2ee\	-tas.	-or	2r	.	.	2r	.	.	2r	.	.	2r	.	.
2r	.	.	2r	.	.	2r	.	.	2r	.	.	2d\	Ti-	Fac	2f\	Ti-	Fac	2a\	Ti-	Fac	2dd\	Ti-	Fac
=45-	=45-	=45-	=45-	=45-	=45-	=45-	=45-	=45-	=45-	=45-	=45-	=45-	=45-	=45-	=45-	=45-	=45-	=45-	=45-	=45-	=45-	=45-	=45-
*	*	*	*	*	*	*	*	*	*	*	*	*	*	*	*	*	*	*	*	*	*custos:dd	*	*
00r	.	.	00r	.	.	00r	.	.	00r	.	.	1d	-bi	me	1f	-bi	me	1a	-bi	me	1dd	-bi	me
=46-	=46-	=46-	=46-	=46-	=46-	=46-	=46-	=46-	=46-	=46-	=46-	=46-	=46-	=46-	=46-	=46-	=46-	=46-	=46-	=46-	=46-	=46-	=46-
!	!	!	!	!	!	!	!	!	!	!	!	!	!	!	!	!	!	!	!	!	!LO:LB:g=original	!	!
.	.	.	.	.	.	.	.	.	.	.	.	2g\	se	ti-	2g\	se	ti-	2b\	se	ti-	4dd\	ſe	ti-
.	.	.	.	.	.	.	.	.	.	.	.	.	.	.	.	.	.	.	.	.	4ee\	.	-bi
*	*	*	*	*	*	*	*	*	*	*	*	*	*	*	*	*	*	*custos:dd	*	*	*	*	*
.	.	.	.	.	.	.	.	.	.	.	.	2f\	cor	-bi	2a\	cor	-bi	2ccny\	cor	-bi	2ff\	cor	sem-
=47-	=47-	=47-	=47-	=47-	=47-	=47-	=47-	=47-	=47-	=47-	=47-	=47-	=47-	=47-	=47-	=47-	=47-	=47-	=47-	=47-	=47-	=47-	=47-
!	!	!	!	!	!	!	!	!	!	!	!	!LO:SIC:v:s=4B-/	!	!	!	!	!	!LO:LB:g=original	!	!	!	!	!
.	.	.	.	.	.	.	.	.	.	.	.	4Bny/	me-	ſem-	1b-X	me-	sem-	1dd	me-	sem-	1ff	me-	-per
.	.	.	.	.	.	.	.	.	.	.	.	4c/	.	.	.	.	.	.	.	.	.	.	.
.	.	.	.	.	.	.	.	.	.	.	.	4d\	.	.	.	.	.	.	.	.	.	.	.
.	.	.	.	.	.	.	.	.	.	.	.	4eny\	.	.	.	.	.	.	.	.	.	.	.
=48-	=48-	=48-	=48-	=48-	=48-	=48-	=48-	=48-	=48-	=48-	=48-	=48-	=48-	=48-	=48-	=48-	=48-	=48-	=48-	=48-	=48-	=48-	=48-
.	.	.	.	.	.	.	.	.	.	.	.	2f\	-um	-per	2a\	-um	-per	2cc\	-um	-per	2ff\	-um	.
.	.	.	.	.	.	.	.	.	.	.	.	1g\	to-	ma-	1g\	to-	ma-	1b\	to-	ma-	2.dd\	to-	ma-
=49-	=49-	=49-	=49-	=49-	=49-	=49-	=49-	=49-	=49-	=49-	=49-	=49-	=49-	=49-	=49-	=49-	=49-	=49-	=49-	=49-	=49-	=49-	=49-
0r	.	.	0r	.	.	0r	.	.	0r	.	.	.	.	.	.	.	.	.	.	.	.	.	.
.	.	.	.	.	.	.	.	.	.	.	.	.	.	.	.	.	.	.	.	.	4ee\	-tum	-gis
.	.	.	.	.	.	.	.	.	.	.	.	2f\	-tum	-gis	2a\	-tum	-gis	2cc\	-tum	-gis	2ff\	.	.
=50-	=50-	=50-	=50-	=50-	=50-	=50-	=50-	=50-	=50-	=50-	=50-	=50-	=50-	=50-	=50-	=50-	=50-	=50-	=50-	=50-	=50-	=50-	=50-
.	.	.	.	.	.	.	.	.	.	.	.	2c/	ſub-	cre-	2g\	ſub-	cre-	2cc\	sub-	cre-	2ee\	ſub-	cre-
!	!	!	!	!	!	!	!	!	!	!	!	!	!	!	!LO:TX:t=P:problem=# below	!	!	!	!	!	!	!	!
.	.	.	.	.	.	.	.	.	.	.	.	2d\	-ij-	-de-	2f#X\	-ij-	-de-	4a\	-ij-	-de-	2dd\	-ii-	-de-
.	.	.	.	.	.	.	.	.	.	.	.	.	.	.	.	.	.	4b\	.	.	.	.	.
=51-	=51-	=51-	=51-	=51-	=51-	=51-	=51-	=51-	=51-	=51-	=51-	=51-	=51-	=51-	=51-	=51-	=51-	=51-	=51-	=51-	=51-	=51-	=51-
*	*	*	*	*	*	*	*	*	*	*	*	*custos:d	*	*	*	*	*	*	*	*	*	*	*
2r	.	.	2r	.	.	2r	.	.	2r	.	.	1c	-cit	-re	1g	-cit	-re.	1cc	-cit	-re	1ee	-cit.	-re.
1c\	to-	ma-	1g\	to-	ma-	1cc\	to-	ma-	1ee\	to-	ma-	.	.	.	.	.	.	.	.	.	.	.	.
=52-	=52-	=52-	=52-	=52-	=52-	=52-	=52-	=52-	=52-	=52-	=52-	=52-	=52-	=52-	=52-	=52-	=52-	=52-	=52-	=52-	=52-	=52-	=52-
!	!	!	!	!	!	!	!	!	!	!	!	!LO:PB:g=original	!	!	!	!	!	!	!	!	!	!	!
.	.	.	.	.	.	.	.	.	.	.	.	0r	.	.	0r	.	.	0r	.	.	1r	.	.
2F/	-tum	-gis	2a\	-tum	-gis	2cc\	-tum	-gis	2ff\	-tum	-gis	.	.	.	.	.	.	.	.	.	.	.	.
=53-	=53-	=53-	=53-	=53-	=53-	=53-	=53-	=53-	=53-	=53-	=53-	=53-	=53-	=53-	=53-	=53-	=53-	=53-	=53-	=53-	=53-	=53-	=53-
2c/	sub-	cre-	2g\	sub-	cre-	2cc\	ſub-	cre-	2ee\	ſub-	cre-	.	.	.	.	.	.	.	.	.	0r	.	.
2d\	-ij-	-de-	2f\	-ij-	-de-	4a\	-ij-	-de-	2dd\	-ij-	-de-	.	.	.	.	.	.	.	.	.	.	.	.
.	.	.	.	.	.	4bny\	.	.	.	.	.	.	.	.	.	.	.	.	.	.	.	.	.
=54-	=54-	=54-	=54-	=54-	=54-	=54-	=54-	=54-	=54-	=54-	=54-	=54-	=54-	=54-	=54-	=54-	=54-	=54-	=54-	=54-	=54-	=54-	=54-
2c/	-cit	-re	2g\	-cit	-re.	2cc\	-cit	-re.	2ee\	-cit	-re	2r	.	.	2r	.	.	2r	.	.	.	.	.
2r	.	.	2r	.	.	2r	.	.	2r	.	.	2d\	qui-	in	2fny\	Qui-	In	4dd\	qui-	In	.	.	.
.	.	.	.	.	.	.	.	.	.	.	.	.	.	.	.	.	.	4cc\	.	te	.	.	.
=55-	=55-	=55-	=55-	=55-	=55-	=55-	=55-	=55-	=55-	=55-	=55-	=55-	=55-	=55-	=55-	=55-	=55-	=55-	=55-	=55-	=55-	=55-	=55-
00r	.	.	00r	.	.	00r	.	.	00r	.	.	2e\	-a	te	2g\	-a	te	2b\	-a	spem	1r	.	.
.	.	.	.	.	.	.	.	.	.	.	.	2f\	te	spem	2a\	te	spem	2a\	te	.	.	.	.
=56-	=56-	=56-	=56-	=56-	=56-	=56-	=56-	=56-	=56-	=56-	=56-	=56-	=56-	=56-	=56-	=56-	=56-	=56-	=56-	=56-	=56-	=56-	=56-
.	.	.	.	.	.	.	.	.	.	.	.	1g	con-	ha-	1g	con-	ha-	1.b	con-	ha-	2dd\	Qui-	In
.	.	.	.	.	.	.	.	.	.	.	.	.	.	.	.	.	.	.	.	.	2dd\	-a	te
=57-	=57-	=57-	=57-	=57-	=57-	=57-	=57-	=57-	=57-	=57-	=57-	=57-	=57-	=57-	=57-	=57-	=57-	=57-	=57-	=57-	=57-	=57-	=57-
.	.	.	.	.	.	.	.	.	.	.	.	2g\	-tem-	-be-	2g\	-tem-	-[be]-	.	.	.	2ee\	te	spem
.	.	.	.	.	.	.	.	.	.	.	.	2f\	-plans	-re	2a\	-plans	-re	2cc\	-tem-	-be-	2ff\	con-	ha-
=58-	=58-	=58-	=58-	=58-	=58-	=58-	=58-	=58-	=58-	=58-	=58-	=58-	=58-	=58-	=58-	=58-	=58-	=58-	=58-	=58-	=58-	=58-	=58-
.	.	.	.	.	.	.	.	.	.	.	.	1e-X	to-	te	1g	to-	te	4g/	-plans	-re	1gg	-tem-	-be-
.	.	.	.	.	.	.	.	.	.	.	.	.	.	.	.	.	.	4a\	.	.	.	.	.
.	.	.	.	.	.	.	.	.	.	.	.	.	.	.	.	.	.	4b\	.	.	.	.	.
.	.	.	.	.	.	.	.	.	.	.	.	.	.	.	.	.	.	4cc\	.	.	.	.	.
=59-	=59-	=59-	=59-	=59-	=59-	=59-	=59-	=59-	=59-	=59-	=59-	=59-	=59-	=59-	=59-	=59-	=59-	=59-	=59-	=59-	=59-	=59-	=59-
00r	.	.	00r	.	.	00r	.	.	00r	.	.	1d	-tum	di-	1a	-tum	di-	2dd\	to-	.	1ff	-plans	-re.
.	.	.	.	.	.	.	.	.	.	.	.	.	.	.	.	.	.	4a\	.	te	.	.	.
.	.	.	.	.	.	.	.	.	.	.	.	.	.	.	.	.	.	4b\	.	.	.	.	.
=60-	=60-	=60-	=60-	=60-	=60-	=60-	=60-	=60-	=60-	=60-	=60-	=60-	=60-	=60-	=60-	=60-	=60-	=60-	=60-	=60-	=60-	=60-	=60-
*	*	*	*	*	*	*	*	*	*	*	*	*lig	*	*	*	*	*	*	*	*	*	*	*
.	.	.	.	.	.	.	.	.	.	.	.	1c	de-	-li-	4a\	de-	-li-	4cc\	.	.	1.gg	to-	te
.	.	.	.	.	.	.	.	.	.	.	.	.	.	.	4bny\	.	.	4dd\	.	.	.	.	.
.	.	.	.	.	.	.	.	.	.	.	.	.	.	.	2cc\	.	.	2ee\	.	.	.	.	.
=61-	=61-	=61-	=61-	=61-	=61-	=61-	=61-	=61-	=61-	=61-	=61-	=61-	=61-	=61-	=61-	=61-	=61-	=61-	=61-	=61-	=61-	=61-	=61-
.	.	.	.	.	.	.	.	.	.	.	.	1d	.	.	0a	-fi-	-ge-	2a\	.	.	.	.	.
.	.	.	.	.	.	.	.	.	.	.	.	.	.	.	.	.	.	2.dd\	-tum	di-	2ff\	-tum	di-
*	*	*	*	*	*	*	*	*	*	*	*	*Xlig	*	*	*	*	*	*	*	*	*	*	*
=62-	=62-	=62-	=62-	=62-	=62-	=62-	=62-	=62-	=62-	=62-	=62-	=62-	=62-	=62-	=62-	=62-	=62-	=62-	=62-	=62-	=62-	=62-	=62-
.	.	.	.	.	.	.	.	.	.	.	.	1A	-fi-	-ge-	.	.	.	.	.	.	2.ee\	de-	-li-
!	!	!	!	!	!	!	!	!	!	!	!	!	!	!	!	!	!	!LO:SIC:v:s=8cc#\	!	!	!	!	!
.	.	.	.	.	.	.	.	.	.	.	.	.	.	.	.	.	.	8cc\L	de-	-li-	.	.	.
.	.	.	.	.	.	.	.	.	.	.	.	.	.	.	.	.	.	8b\J	.	.	.	.	.
!	!	!	!	!	!	!	!	!	!	!	!	!	!	!	!	!	!	!LO:TX:t=P:problem=# below	!	!	!	!	!
.	.	.	.	.	.	.	.	.	.	.	.	.	.	.	.	.	.	2cc#X\	-fi-	-ge-	.	.	.
.	.	.	.	.	.	.	.	.	.	.	.	.	.	.	.	.	.	.	.	.	4ee\	-fi-	-ge-
=63-	=63-	=63-	=63-	=63-	=63-	=63-	=63-	=63-	=63-	=63-	=63-	=63-	=63-	=63-	=63-	=63-	=63-	=63-	=63-	=63-	=63-	=63-	=63-
2r	.	.	2r	.	.	0r	.	.	2r	.	.	2d\	-cit	-re.	2g\	-cit.	-re.	2dd\	-cit	-re.	2dd\	-cit	-re.
*	*	*	*	*	*	*	*	*	*	*	*	*	*	*	*	*	*	*custos:dd	*	*	*	*	*
2A/	qui-	In	2a\	qui-	In	.	.	.	2cc\	qui-	In	2r	.	.	2r	.	.	2r	.	.	2r	.	.
=64-	=64-	=64-	=64-	=64-	=64-	=64-	=64-	=64-	=64-	=64-	=64-	=64-	=64-	=64-	=64-	=64-	=64-	=64-	=64-	=64-	=64-	=64-	=64-
*	*	*	*	*	*	*	*	*	*	*	*	*	*	*	*custos:a	*	*	*	*	*	*	*	*
!	!	!	!	!	!	!	!	!	!	!	!	!	!	!	!	!	!	!LO:LB:g=original	!	!	!LO:LB:g=original	!	!
2Bny/	-à	te	2g\	-a	te	.	.	.	2dd\	-a	te	00r	.	.	0r	.	.	00r	.	.	00r	.	.
2c/	te	spem	2e/	te	spem	.	.	.	2ee\	te	spem	.	.	.	.	.	.	.	.	.	.	.	.
=65-	=65-	=65-	=65-	=65-	=65-	=65-	=65-	=65-	=65-	=65-	=65-	=65-	=65-	=65-	=65-	=65-	=65-	=65-	=65-	=65-	=65-	=65-	=65-
*custos:d	*	*	*	*	*	*	*	*	*	*	*	*	*	*	*	*	*	*	*	*	*	*	*
1d	con-	ha-	2.d/	con-	ha-	2a\	qui-	In	1.ff	con-	ha-	.	.	.	.	.	.	.	.	.	.	.	.
.	.	.	.	.	.	2a\	-a	te	.	.	.	.	.	.	.	.	.	.	.	.	.	.	.
.	.	.	4e/	-tem-	-be-	.	.	.	.	.	.	.	.	.	.	.	.	.	.	.	.	.	.
=66-	=66-	=66-	=66-	=66-	=66-	=66-	=66-	=66-	=66-	=66-	=66-	=66-	=66-	=66-	=66-	=66-	=66-	=66-	=66-	=66-	=66-	=66-	=66-
!LO:LB:g=original	!	!	!	!	!	!	!	!	!	!	!	!	!	!	!LO:PB:g=original	!	!	!	!	!	!	!	!
2d\	-tem-	-be-	2f\	-plans	-re	2b\	te	spem	.	.	.	.	.	.	00r	.	.	.	.	.	.	.	.
*	*	*	*	*	*	*	*	*	*custos:dd	*	*	*	*	*	*	*	*	*	*	*	*	*	*
2c/	-plans	-re	4g\	.	.	2cc\	con-	ha-	2ee\	-tem[[plans]]-	-be-	.	.	.	.	.	.	.	.	.	.	.	.
*	*	*	*custos:b-	*	*	*	*	*	*	*	*	*	*	*	*	*	*	*	*	*	*	*	*
.	.	.	4a\	.	.	.	.	.	.	.	.	.	.	.	.	.	.	.	.	.	.	.	.
=67-	=67-	=67-	=67-	=67-	=67-	=67-	=67-	=67-	=67-	=67-	=67-	=67-	=67-	=67-	=67-	=67-	=67-	=67-	=67-	=67-	=67-	=67-	=67-
!	!	!	!LO:LB:g=original	!	!	!	!	!	!LO:LB:g=original	!	!	!	!	!	!	!	!	!	!	!	!	!	!
1B-X	to-	te	2.b-X\	to-	te	1dd	-tem-	-be-	1dd	-plans	-re	.	.	.	.	.	.	.	.	.	.	.	.
.	.	.	8a\L	.	.	.	.	.	.	.	.	.	.	.	.	.	.	.	.	.	.	.	.
.	.	.	8g\J	.	.	.	.	.	.	.	.	.	.	.	.	.	.	.	.	.	.	.	.
=68-	=68-	=68-	=68-	=68-	=68-	=68-	=68-	=68-	=68-	=68-	=68-	=68-	=68-	=68-	=68-	=68-	=68-	=68-	=68-	=68-	=68-	=68-	=68-
1A	-tum	di-	2.e/	-tum	di-	2cc\	-plans	-re	2ee,<\	.	.	0r	.	.	.	.	.	0r	.	.	0r	.	.
.	.	.	.	.	.	2cc\	to-	te	2a/	to-	te	.	.	.	.	.	.	.	.	.	.	.	.
.	.	.	4f\	.	.	.	.	.	.	.	.	.	.	.	.	.	.	.	.	.	.	.	.
=69-	=69-	=69-	=69-	=69-	=69-	=69-	=69-	=69-	=69-	=69-	=69-	=69-	=69-	=69-	=69-	=69-	=69-	=69-	=69-	=69-	=69-	=69-	=69-
1G	def-	-li-	2.g\	de-	.	2b-X\	-tum	di-	2dd,<\	-tum	.	.	.	.	.	.	.	.	.	.	.	.	.
.	.	.	.	.	.	2b-\	ſu-	-li-	2.dd\	de-	di-	.	.	.	.	.	.	.	.	.	.	.	.
.	.	.	4f\	.	-li-	.	.	.	.	.	.	.	.	.	.	.	.	.	.	.	.	.	.
=70-	=70-	=70-	=70-	=70-	=70-	=70-	=70-	=70-	=70-	=70-	=70-	=70-	=70-	=70-	=70-	=70-	=70-	=70-	=70-	=70-	=70-	=70-	=70-
*	*	*	*	*	*	*custos:a	*	*	*	*	*	*	*	*	*	*	*	*	*	*	*	*	*
1A	-fi-	-ge-	1e	-fi-	-ge-	1a	-bi-	-ge-	.	.	.	1r	.	.	1r	.	.	1r	.	.	1r	.	.
!	!	!	!	!	!	!	!	!	!LO:SIC:v:s=8cc#\	!	!	!	!	!	!	!	!	!	!	!	!	!	!
.	.	.	.	.	.	.	.	.	8cc\L	-fi-	-li-	.	.	.	.	.	.	.	.	.	.	.	.
.	.	.	.	.	.	.	.	.	8b\J	.	.	.	.	.	.	.	.	.	.	.	.	.	.
!	!	!	!	!	!	!	!	!	!LO:TX:t=P:problem=# below	!	!	!	!	!	!	!	!	!	!	!	!	!	!
.	.	.	.	.	.	.	.	.	2cc#X\	-cit	-ge-	.	.	.	.	.	.	.	.	.	.	.	.
=71-	=71-	=71-	=71-	=71-	=71-	=71-	=71-	=71-	=71-	=71-	=71-	=71-	=71-	=71-	=71-	=71-	=71-	=71-	=71-	=71-	=71-	=71-	=71-
!	!	!	!LO:TX:t=P:problem=# below	!	!	!LO:LB:g=original	!	!	!	!	!	!	!	!	!	!	!	!	!	!	!	!	!
2d\	-cit	-re	2f#X\	-cit	-re	2a\	-cit	-re.	2dd\	.	-re	2r	.	.	2r	.	.	2r	.	.	2r	.	.
2r	.	.	2r	.	.	2r	.	.	2r	.	.	2d\	to-	te	2a\	to-	te	2.dd\	to-	te	2ff\	to-	te
=72-	=72-	=72-	=72-	=72-	=72-	=72-	=72-	=72-	=72-	=72-	=72-	=72-	=72-	=72-	=72-	=72-	=72-	=72-	=72-	=72-	=72-	=72-	=72-
2r	.	.	2r	.	.	2r	.	.	2r	.	.	2c/	-tum	di-	2e/	-tum	di-	.	.	.	2ee\	-tum	di-
.	.	.	.	.	.	.	.	.	.	.	.	.	.	.	.	.	.	4a\	-tum	di-	.	.	.
2d\	to-	te	2fny\	to-	te	2a\	to-	te	2ff\	to-	te	2d\	de-	-li-	2a\	de-	-li-	2dd\	de-	-li-	2dd\	de-	-li-
=73-	=73-	=73-	=73-	=73-	=73-	=73-	=73-	=73-	=73-	=73-	=73-	=73-	=73-	=73-	=73-	=73-	=73-	=73-	=73-	=73-	=73-	=73-	=73-
!	!	!	!	!	!	!	!	!	!	!	!	!	!	!	!	!	!	!LO:TX:t=P:problem=# below	!	!	!	!	!
2A/	-tum	di-	2a\	-tum	di-	2a\	-tum	di-	2ee\	-tum	di-	2a\	-fi-	-ge-	2a\	-fi-	-ge-	2cc#X\	-fi-	-ge-	2ee\	-fi-	-ge-
!	!	!	!	!	!	!LO:SIC:v:s=2f#/	!	!	!	!	!	!	!	!	!	!	!	!	!	!	!LO:TX:t=P:problem=# below	!	!
2d\	de-	-li-	2a\	de-	-li-	2f/	ſu-	-li-	2dd\	de-	-li-	4d\	-cit	-re	4a,<\	-cit	-re	4dd\	-cit	-re	4ff#X,<\	-cit	-re
*	*	*	*	*	*	*	*	*	*	*	*	*	*	*ij	*	*	*	*	*ij	*ij	*	*	*
!	!	!	!	!	!	!	!	!	!	!	!	!	!	!	!LO:SIC:v:s=4f#\	!	!	!	!	!	!	!	!
.	.	.	.	.	.	.	.	.	.	.	.	4d\	[to-	te	4f\	to-	te	4dd\	to-	te	4aa\	to-	te
=74-	=74-	=74-	=74-	=74-	=74-	=74-	=74-	=74-	=74-	=74-	=74-	=74-	=74-	=74-	=74-	=74-	=74-	=74-	=74-	=74-	=74-	=74-	=74-
!	!	!	!	!	!	!	!	!	!	!	!	!	!	!	!	!	!	!LO:TX:t=P:problem=# below	!	!	!	!	!
2a\	-fi-	-ge-	2a\	-fi-	-ge-	2a\	-bij-	-ge-	2ee\	-fi-	-ge-	2A/	-tum	di-	2e/	-tum	di-	2cc#X\	-tum	di-	2aa\	-tum	di-
4d\	-cit	-re	4f\	-cit	-re.	4a\	-cit	-re	4dd\	-cit	-re	2d\	de-	-li-	2a\	de-	-li-	2dd\	de-	-li-	2ff#y\	de-	-li-
*	*ij	*	*	*	*	*	*	*ij	*	*ij	*ij	*	*	*	*	*	*	*	*	*	*	*	*
!	!	!	!	!	!	!LO:SIC:v:s=4f#/	!	!	!	!	!	!	!	!	!	!	!	!	!	!	!	!	!
4d\	to-	te	4a\	to-	te	4f/	.	te	4dd\	to-	te	.	.	.	.	.	.	.	.	.	.	.	.
=75-	=75-	=75-	=75-	=75-	=75-	=75-	=75-	=75-	=75-	=75-	=75-	=75-	=75-	=75-	=75-	=75-	=75-	=75-	=75-	=75-	=75-	=75-	=75-
!	!	!	!	!	!	!	!	!	!	!	!	!	!	!	!	!	!	!LO:TX:t=P:problem=# below	!	!	!	!	!
2a\	-tum	di-	2a\	-tum	di-	2a\	to-	di-	2ee\	-tum	di-	2A/	-fi-	-ge-	2a\	-fi-	-ge-	2cc#X\	-fi-	-ge-	2ee\	-fi-	-ge-
!	!	!	!	!	!	!LO:SIC:v:s=2f#/	!	!	!	!	!	!	!	!	!	!	!	!	!	!	!LO:TX:t=P:problem=# below	!	!
2d\	de-	-li-	2a\	de-	-li-	2f/	-tum	-li-	2dd\	de-	-li-	4d\	-cit]	-re	4a,<\	-cit	-re	4dd\	-cit	-re	4ff#X,<\	-cit	-re.
*	*	*	*	*	*	*	*	*	*	*	*	*	*	*Xij	*	*	*	*	*Xij	*Xij	*	*	*
!	!	!	!	!	!	!	!	!	!	!	!	!	!	!	!LO:SIC:v:s=4f#\	!	!	!	!	!	!	!	!
.	.	.	.	.	.	.	.	.	.	.	.	4d\	to-	te	4f\	to-	te	4dd\	to-	te	4aa\	to-	te
=76-	=76-	=76-	=76-	=76-	=76-	=76-	=76-	=76-	=76-	=76-	=76-	=76-	=76-	=76-	=76-	=76-	=76-	=76-	=76-	=76-	=76-	=76-	=76-
!	!	!	!	!	!	!	!	!	!	!	!	!	!	!	!	!	!	!LO:TX:t=P:problem=# below	!	!	!	!	!
2A/	-fi-	-ge	0a	-fi-	-ge-	2a\	ſu-	-ge-	2ee\	-fi-	-ge-	2a\	-tum	di-	2e/	-tum	di-	2cc#X\	-tum	di-	2aa\	-tum	di-
4d\	-cit	di-	.	.	.	4a\	-bij-	-re	4dd\	-cit	-re	2d\	de-	-li-	2a\	de-	-li-	2.dd\	de-	-li-	2ff#yX\	de-	-li-
*	*Xij	*	*	*	*	*	*	*Xij	*	*Xij	*Xij	*	*	*	*	*	*	*	*	*	*	*	*
!	!	!	!	!	!	!LO:SIC:v:s=4f#/	!	!	!	!	!	!	!	!	!	!	!	!	!	!	!	!	!
16d\LL	de-	.	.	.	.	4f/	-cit	di-	4dd\	to-	te	.	.	.	.	.	.	.	.	.	.	.	.
16e\	.	.	.	.	.	.	.	.	.	.	.	.	.	.	.	.	.	.	.	.	.	.	.
!LO:SIC:v:s=16f#\	!	!	!	!	!	!	!	!	!	!	!	!	!	!	!	!	!	!	!	!	!	!	!
16f\	.	.	.	.	.	.	.	.	.	.	.	.	.	.	.	.	.	.	.	.	.	.	.
16g\JJ	.	.	.	.	.	.	.	.	.	.	.	.	.	.	.	.	.	.	.	.	.	.	.
=77-	=77-	=77-	=77-	=77-	=77-	=77-	=77-	=77-	=77-	=77-	=77-	=77-	=77-	=77-	=77-	=77-	=77-	=77-	=77-	=77-	=77-	=77-	=77-
!	!	!	!	!	!	!	!	!	!LO:TX:t=P:problem=niewyraźny tekst	!	!	!	!	!	!	!	!	!	!	!	!	!	!
2.a\	.	-li-	.	.	.	2.a\	ſu-	-li-	4ee\	-tum	di-	1A	-fi-	-ge-	1a	-fi-	-ge-	.	.	.	1ee	-fi-	-ge-
.	.	.	.	.	.	.	.	.	4dd\	de-	-li-	.	.	.	.	.	.	8cc#y\L	.	.	.	.	.
.	.	.	.	.	.	.	.	.	.	.	.	.	.	.	.	.	.	8b\J	.	.	.	.	.
!	!	!	!	!	!	!	!	!	!	!	!	!	!	!	!	!	!	!LO:TX:t=P:problem=# below	!	!	!	!	!
.	.	.	.	.	.	.	.	.	2ee\	-fi-	-ge-	.	.	.	.	.	.	2cc#X\	-fi-	-ge-	.	.	.
4a\	-fi-	-ge-	.	.	.	4a\	-bij-	-ge-	.	.	.	.	.	.	.	.	.	.	.	.	.	.	.
=78-	=78-	=78-	=78-	=78-	=78-	=78-	=78-	=78-	=78-	=78-	=78-	=78-	=78-	=78-	=78-	=78-	=78-	=78-	=78-	=78-	=78-	=78-	=78-
!	!	!	!	!	!	!	!	!	!	!	!	!	!	!	!	!	!	!	!	!	!LO:TX:t=P:problem=# below	!	!
!	!	!	!	!	!	!	!	!	!	!	!	!	!	!	!LO:TX:t=2da Pars.	!	!	!LO:TX:t=2da Pars	!	!	!LO:TX:t=2da Pars.	!	!
00d;;	-cit.	-re.	00a;;	-cit.	-re.	00a;;	-cit.	-re.	00dd;;	-cit	-re.	00d;;	-cit	-re.	00a;;	-cit	-re.	00dd;;	-cit	-re.	00ff#X;;	-cit	-re
=79-	=79-	=79-	=79-	=79-	=79-	=79-	=79-	=79-	=79-	=79-	=79-	=79-	=79-	=79-	=79-	=79-	=79-	=79-	=79-	=79-	=79-	=79-	=79-
.	.	.	.	.	.	.	.	.	.	.	.	.	.	.	.	.	.	.	.	.	.	.	.
=80-	=80-	=80-	=80-	=80-	=80-	=80-	=80-	=80-	=80-	=80-	=80-	=80-	=80-	=80-	=80-	=80-	=80-	=80-	=80-	=80-	=80-	=80-	=80-
.	.	.	.	.	.	.	.	.	.	.	.	.	.	.	.	.	.	.	.	.	.	.	.
=81-	=81-	=81-	=81-	=81-	=81-	=81-	=81-	=81-	=81-	=81-	=81-	=81-	=81-	=81-	=81-	=81-	=81-	=81-	=81-	=81-	=81-	=81-	=81-
.	.	.	.	.	.	.	.	.	.	.	.	.	.	.	.	.	.	.	.	.	.	.	.
==	==	==	==	==	==	==	==	==	==	==	==	==	==	==	==	==	==	==	==	==	==	==	==
*-	*-	*-	*-	*-	*-	*-	*-	*-	*-	*-	*-	*-	*-	*-	*-	*-	*-	*-	*-	*-	*-	*-	*-
!!!system-decoration: [(s1,s2,s3,s4)][(s5,s6,s7,s8)]
!!!RDF**kern: > = above
!!!RDF**kern: < = below
!!!ENC: Katarzyna Serwa
!!!END: 2021-10-18
!!!ENC: Anastazja Marusiak
!!!END: 2021-10-07
